svgs/solid/face-raised-eyebrow.svg

<svg xmlns="http://www.w3.org/2000/svg" viewBox="0 0 512 512"><!--! Font Awesome Pro 6.2.0 by @fontawesome - https://fontawesome.com License - https://fontawesome.com/license (Commercial License) Copyright 2022 Fonticons, Inc. --><path d="M512 256c0 141.4-114.6 256-256 256S0 397.4 0 256S114.6 0 256 0S512 114.6 512 256zM208.4 240c0-17.7-14.3-32-32-32s-32 14.3-32 32s14.3 32 32 32s32-14.3 32-32zm128 32c17.7 0 32-14.3 32-32s-14.3-32-32-32s-32 14.3-32 32s14.3 32 32 32zM144 352c0 8.8 7.2 16 16 16H352c8.8 0 16-7.2 16-16s-7.2-16-16-16H160c-8.8 0-16 7.2-16 16zM328.8 141.8c10.7-10.7 28.5-8.9 36.9 3.7l4.9 7.4c4.9 7.4 14.8 9.3 22.2 4.4s9.3-14.8 4.4-22.2l-4.9-7.4c-19.6-29.4-61.2-33.5-86.2-8.5l-29.5 29.5c-6.2 6.2-6.2 16.4 0 22.6s16.4 6.2 22.6 0l29.5-29.5zM128 144c-8.8 0-16 7.2-16 16s7.2 16 16 16h64c8.8 0 16-7.2 16-16s-7.2-16-16-16H128z"/></svg>

<svg xmlns="http://www.w3.org/2000/svg" viewBox="0 0 512 512"><!--! Font Awesome Pro 6.1.2 by @fontawesome - https://fontawesome.com License - https://fontawesome.com/license (Commercial License) Copyright 2022 Fonticons, Inc. --><path d="M512 256C512 397.4 397.4 512 256 512C114.6 512 0 397.4 0 256C0 114.6 114.6 0 256 0C397.4 0 512 114.6 512 256zM176.4 208C158.7 208 144.4 222.3 144.4 240C144.4 257.7 158.7 272 176.4 272C194 272 208.4 257.7 208.4 240C208.4 222.3 194 208 176.4 208zM336.4 272C354 272 368.4 257.7 368.4 240C368.4 222.3 354 208 336.4 208C318.7 208 304.4 222.3 304.4 240C304.4 257.7 318.7 272 336.4 272zM160 368H352C360.8 368 368 360.8 368 352C368 343.2 360.8 336 352 336H160C151.2 336 144 343.2 144 352C144 360.8 151.2 368 160 368zM328.8 141.8C339.5 131.1 357.4 132.9 365.8 145.5L370.7 152.9C375.6 160.2 385.5 162.2 392.9 157.3C400.2 152.4 402.2 142.5 397.3 135.1L392.4 127.7C372.8 98.32 331.2 94.2 306.2 119.2L276.7 148.7C270.4 154.9 270.4 165.1 276.7 171.3C282.9 177.6 293.1 177.6 299.3 171.3L328.8 141.8zM128 144C119.2 144 112 151.2 112 160C112 168.8 119.2 176 128 176H192C200.8 176 208 168.8 208 160C208 151.2 200.8 144 192 144H128z"/></svg>
